X: 33269
T: Purfy
R: jig
M: 6/8
K: Dmajor
B3 BAB|dBB BAF|G2 d2 E2|F2 c2 A2|
B3 BAB|dBB BAF|edB AFA|^A2 B2 c2|
B3 BAB|dBB BAF|G2 d2 ef|e2 c2 A2|
B3 BAB|dBB eBf|B3 dBB|ABc B3:|
fdd dcB|Fdd dcB|Ace ecA|GBd F2 E|
F2 d dcB|Fdd d2 e|fed efd|B3 B3|
fdB Bfd|z ec a2 b|fdB Bcd|c2 B cAA|
FBd fBd|eAc ecA|dcB ^ABc|B3 B3:|

